X:1
T:Mannerly Margery Milk and Ale
T:William Cornish (14?? - 1523)
T:Poem by John Skelton (c1460 - 1529)
T:Mannerly Margery Milk and Ale
C:William Cornish (14?? - 1523)
Z:Poem by John Skelton (c1460 - 1529)
%%score [ 1 2 3 ]
L:1/8
M:2/2
K:C
V:1 alto nm="P1"
V:2 tenor transpose=-12 nm="P2"
V:3 bass nm="P3"
V:1
 x8 |[M:2/2][K:treble] z4 (C4 E6) D2 | E4 C4 F4 G4 | E6 D2 C4 C4 | B,4 G,4 C4 D4 |[M:3/4] B,4 D2 | %6
w: |Ay _ be-|shrew you by my|fay, these wan- ton|clerks be nice al-|way, a-|
 G4 D2 | E2 FE DC | B,6 | A,2 D2 C2 |[M:2/2] B,4 z4 z8 | z4 G4 A4 ^F4 | G8 z4 D2 D2 | %13
w: vaunt, a-|vaunt, _ _ _ _|_|my po- pin-|jay,|no- thing but|play, tul- ly|
[M:3/4] B,G, D4 | A,2 A,2 A,2 | B,6 | z6 | z2 z2 D2 | G3 G ^F2 | G4 D2 | E3 D C2 | F2 F2 E2 | %22
w: val- ly straw,|let be I|say,||gup|Jack of the|vale, with|man- ner- ly|Mar- ge- ry|
 D4 D2 | G,2 C4 | D3 E C2 | D2 B,2 A,2 | (CD) (EF) G2 | D2 F2 F2 | (F2 A2) (GF) |[M:2/2] E16 || %30
w: milk and|ale, with|man- ner- ly|Mar- ge- ry,|man- * ner- * ly|Mar- ger- ry|milk _ and _|ale.|
 z4 C4 G6 E2 | D6 C2 B,6 B,2 | C8 z8 | z16 | G4 E4 C4 C2 C2 | F6 E2 D4 z4 | G4 E2 F2 G4 G4 | %37
w: By God ye|be a pre- tty|pode,||straw, James Fo- der ye|play the fode,|I am no hack- ney|
[M:4/4] F6 E2 |[M:3/4] D4 C2 | E4 F2 | G4 G2 | A4 ^F2 | G4 z2 | z6 | z2 z2 D2 | G3 G ^F2 | G4 D2 | %47
w: for your|rode, go|watch a|bull your|back is|broad.||gup|Jack of the|vale, with|
 E3 D C2 | F2 F2 E2 | D4 D2 | G,2 C4 | D3 E C2 | D2 B,2 A,2 | (CD) (EF) G2 | D2 F2 F2 | %55
w: man- ner- ly|Mar- ge- ry|milk and|ale, with|man- ner- ly|Mar- ge- ry,|man- * ner- * ly|Mar- ger- ry|
 (F2 A2) (GF) |[M:2/2] E16 || C8 C4 C4 | B,4 B,4 A,4 A,4 |[M:3/4] G,4 z2 | C2 C2 C2 | E3 D C2 | %62
w: milk _ and _|ale.|I- wis ye|deal un- cour- teous-|ly,|what would ye|frum- ple me,|
 G2 D4 |[M:2/2] E8 z8 | z16 | z4 G4 A4 ^F4 | G4 G4 z8 |[M:3/4] z2 z2 C2 | E2 E2 ^F2 | G4 G2 | %70
w: now fie,|fie.||By Christ ye|shall not|I|will not be|ja- ped|
 A4 ^F2 | G4 z2 | z6 | z2 z2 D2 | G3 G ^F2 | G4 D2 | E3 D C2 | F2 F2 E2 | D4 D2 | G,2 C4 | %80
w: bo- di-|ly.||gup|Jack of the|vale, with|man- ner- ly|Mar- ge- ry|milk and|ale, with|
 D3 E C2 | D2 B,2 A,2 | (CD) (EF) G2 | D2 F2 F2 | (F2 A2) (GF) |[M:2/2] E16 || z16 | z16 | z16 | %89
w: man- ner- ly|Mar- ge- ry,|man- * ner- * ly|Mar- ger- ry|milk _ and _|ale.||||
 z16 | z16 | z16 | z4 C4 E4 C4 | G8 z4 C4 | _E12 E4 | D4 z4 G4 F2 _E2 | D4 C4 B,4 B,4 | %97
w: |||Yet for his|love that|all hath|wrought, wed me or|else I die for|
[M:3/4] C4 z2 | z6 | z6 | z6 | z2 z2 C2 | E3 E ^F2 | G2 G2 G2 | A4 ^F2 | G4 z2 | z6 | z2 z2 D2 | %108
w: thought.||||Go|man- ner- ly|Mar- ge- ry|milk and|ale.||gup|
 G3 G ^F2 | G4 D2 | E3 D C2 | F2 F2 E2 | D4 D2 | G,2 C4 | D3 E C2 | D2 B,2 A,2 | (CD) (EF) G2 | %117
w: Jack of the|vale, with|man- ner- ly|Mar- ge- ry|milk and|ale, with|man- ner- ly|Mar- ge- ry,|man- * ner- * ly|
 D2 F2 F2 | (F2 A2) (GF) |[M:4/2] E16 |] %120
w: Mar- ger- ry|milk _ and _|ale.|
V:2
 x8 |[M:2/2][K:treble-8] (c8 c6) B2 | c4 c4 d4 B4 | c8 z8 | z16 |[M:3/4] z2 z2 G2 | G4 G2 | %7
w: |Ay _ be-|shrew you by my|fay,||a-|vaunt, a-|
 G2 AG FE | D4 G2 | ^F4 F2 |[M:2/2] G4 B4 c4 d4 | G6 B2 A4 A4 | G4 z4 c2 c2 B2 G2 |[M:3/4] d4 G2 | %14
w: vaunt, _ _ _ _|_ my|po- pin-|jay, what will ye|do no- thing but|play, tul- ly val- ly|straw, let|
 ^F4 F2 | G4 G2 | c3 c B2 | c4 G2 | B3 B A2 | G4 G2 | G3 F E2 | D2 D2 C2 | z2 z2 D2 | E3 D C2 | %24
w: be I|say, gup|Chris- ti- an|Clout, gup|Jack of the|vale, with|man- ner- ly|Mar- ge- ry,|with|man- ner- ly|
 F2 F2 E2 | D4 D2 | C4 c2 | d3 d c2 | (d2 A2) B2 |[M:2/2] c16 || C8 E4 C4 | G6 E2 D6 D2 | %32
w: Mar- ge- ry|milk and|ale, with|Mar- ge- ry|milk _ and|ale.|By God ye|be a pre- tty|
 C8 z4 c2 c2 | B2 B2 c4 d4 B4 | c8 z4 c4 | d6 c2 B4 z4 | G4 c6 c2 c2 c2 |[M:4/4] d6 c2 | %38
w: pode, and I|love you an whole cart|load, ye|play the fode,|I am no hack- ney|for your|
[M:3/4] B4 c2 | c4 A2 | G4 B2 | A4 A2 | G4 G2 | c3 c B2 | c4 G2 | B3 B A2 | G4 G2 | G3 F E2 | %48
w: rode, go|watch a|bull your|back is|broad. Gup|Chris- ti- an|Clout, gup|Jack of the|vale, with|man- ner- ly|
 D2 D2 C2 | z2 z2 D2 | E3 D C2 | F2 F2 E2 | D4 D2 | C4 c2 | d3 d c2 | (d2 A2) B2 |[M:2/2] c16 || %57
w: Mar- ge- ry,|with|man- ner- ly|Mar- ge- ry|milk and|ale, with|Mar- ge- ry|milk _ and|ale.|
 c8 A4 c4 | G6 G2 A4 ^F4 |[M:3/4] G4 G2 | A4 F2 | c3 B A2 | B4 G2 |[M:2/2] c4 G2 G2 B6 B2 | %64
w: I- wis ye|deal un- cour- teous-|ly, what|would ye|frum- ple me,|now fie,|fie. What and ye shall|
 B4 G4 c6 B2 | A4 B4 A8 | z4 c4 d4 B4 |[M:3/4] c4 c2 | c2 c2 A2 | G4 B2 | A4 A2 | G4 G2 | c3 c B2 | %73
w: be my pigs- nye,|my pigs- nye,|no, no hard-|ly, I|will not be|ja- ped|bo- di-|ly. Gup|Chris- ti- an|
 c4 G2 | B3 B A2 | G4 G2 | G3 F E2 | D2 D2 C2 | z2 z2 D2 | E3 D C2 | F2 F2 E2 | D4 D2 | C4 c2 | %83
w: Clout, gup|Jack of the|vale, with|man- ner- ly|Mar- ge- ry,|with|man- ner- ly|Mar- ge- ry|milk and|ale, with|
 d3 d c2 | (d2 A2) B2 |[M:2/2] c16 || z4 G4 c6 c2 | B4 B4 A4 A4 | G4 A4 B6 A2 | B4 c4 d6 d2 | %90
w: Mar- ge- ry|milk _ and|ale.|Walk forth your|way, ye cost me|nought, now have I|found that I have|
 G6 G2 c4 c4 | d6 c2 B2 c4 B2 | c8 z4 C4 | E4 C4 G4 z4 | G4 c8 c4 | B4 z4 _e4 d2 c2 | %96
w: sought, the best cheap|flesh that e- ver I|bought. Yet|for his love|that all hath|wrought, wed me or|
 _B4 _A4 G6 G2 |[M:3/4] C4 c2 | c3 B A2 | G4 B2 | A4 A2 | G4 A2 | c2 c2 A2 | B3 B G2 | c4 A2 | %105
w: else I die for|thought. Gup|Chris- ti- an|Clout, your|breath is|stale, go|man- ner- ly|Mar- ge- ry|milk and|
 G4 G2 | c3 c B2 | c4 G2 | B3 B A2 | G4 G2 | G3 F E2 | D2 D2 C2 | z2 z2 D2 | E3 D C2 | F2 F2 E2 | %115
w: ale. Gup|Chris- ti- an|Clout, gup|Jack of the|vale, with|man- ner- ly|Mar- ge- ry,|with|man- ner- ly|Mar- ge- ry|
 D4 D2 | C4 c2 | d3 d c2 | (d2 A2) B2 |[M:4/2] c16 |] %120
w: milk and|ale, with|Mar- ge- ry|milk _ and|ale.|
V:3
 x8 |[M:2/2] z16 | z16 | z4 C,4 E,6 F,2 | G,4 G,4 A,4 ^F,4 |[M:3/4] G,6 | z2 z2 G,,2 | C,4 C,2 | %8
w: |||These wan- ton|clerks be nice al-|way,|a-|vaunt, a-|
 G,,4 z2 | D,2 B,,2 A,,2 |[M:2/2] G,,4 G,4 A,4 ^F,4 | G,8 D,8 | z4 G,2 G,2 E,2 C,2 G,4 | %13
w: vaunt,|my po- pin-|jay, what will ye|do, _|tul- ly val- ly straw,|
[M:3/4] z6 | z6 | z2 z2 G,2 | E,3 E, D,2 | C,2 D,C, B,,A,, | G,,4 z2 | z2 z2 G,,2 | C,3 C, C,2 | %21
w: ||gup|Chris- tian Clout,|_ _ _ _ _||with|man- ner- ly|
 B,,2 B,,2 C,2 | G,,4 G,,2 | (C,3 B,, C,2) | B,,4 C,2 | G,,2 z2 D,2 | E,3 D, C,2 | F,2 F,2 E,2 | %28
w: Mar- ge- ry|milk and|ale, _ _|milk and|ale, with|man- ner- ly|Mar- ge- ry|
 D,4 D,2 |[M:2/2] C,16 || z16 | z16 | z4 C,4 E,4 C,4 | G,4 E,4 D,4 D,4 | C,16 | z16 | z16 | %37
w: milk and|ale.|||And I love|you an whole cart|load.|||
[M:4/4] z8 |[M:3/4] z6 | z6 | z6 | z6 | z2 z2 G,2 | E,3 E, D,2 | C,2 D,C, B,,A,, | G,,4 z2 | %46
w: |||||Gup|Chris- tian Clout,|_ _ _ _ _||
 z2 z2 G,,2 | C,3 C, C,2 | B,,2 B,,2 C,2 | G,,4 G,,2 | (C,3 B,, C,2) | B,,4 C,2 | G,,2 z2 D,2 | %53
w: with|man- ner- ly|Mar- ge- ry|milk and|ale, _ _|milk and|ale, with|
 E,3 D, C,2 | F,2 F,2 E,2 | D,4 D,2 |[M:2/2] C,16 || z16 | z16 |[M:3/4] z6 | z6 | z6 | z6 | %63
w: man- ner- ly|Mar- ge- ry|milk and|ale.|||||||
[M:2/2] z4 C,2 C,2 G,6 G,2 | G,4 G,4 A,6 G,2 | ^F,4 G,4 D,8 | z4 C,4 (F,4 D,4) |[M:3/4] C,4 z2 | %68
w: What and ye shall|be my pigs- nye,|my pigs- nye,|my pigs- *|nye|
 z6 | z6 | z6 | z2 z2 G,2 | E,3 E, D,2 | C,2 D,C, B,,A,, | G,,4 z2 | z2 z2 G,,2 | C,3 C, C,2 | %77
w: |||Gup|Chris- tian Clout,|_ _ _ _ _||with|man- ner- ly|
 B,,2 B,,2 C,2 | G,,4 G,,2 | (C,3 B,, C,2) | B,,4 C,2 | G,,2 z2 D,2 | E,3 D, C,2 | F,2 F,2 E,2 | %84
w: Mar- ge- ry|milk and|ale, _ _|milk and|ale, with|man- ner- ly|Mar- ge- ry|
 D,4 D,2 |[M:2/2] C,16 || C,8 E,4 ^F,4 | G,6 G,2 A,4 ^F,4 | G,4 ^F,4 G,6 F,2 | %89
w: milk and|ale.|Walk forth your|way, ye cost me|nought, now have I|
 G,4 E,4 ^F,2 F,2 G,4 | z4 C,4 E,4 C,4 | F,6 E,2 D,2 C,2 D,4 | C,8 z8 | z16 | z16 | z16 | z16 | %97
w: found that I have sought,|the best cheap|flesh that e- ver I|bought.|||||
[M:3/4] z2 z2 C,2 | E,3 E, ^F,2 | G,4 G,2 | A,4 ^F,2 | G,4 z2 | z6 | z6 | z6 | z2 z2 G,2 | %106
w: Gup|Chris- ti- an|Clout, your|breath is|stale.||||Gup|
 E,3 E, D,2 | C,2 D,C, B,,A,, | G,,4 z2 | z2 z2 G,,2 | C,3 C, C,2 | B,,2 B,,2 C,2 | G,,4 G,,2 | %113
w: Chris- tian Clout,|_ _ _ _ _||with|man- ner- ly|Mar- ge- ry|milk and|
 (C,3 B,, C,2) | B,,4 C,2 | %115
w: ale, _ _|milk and|
"^From \"A History of the Science and Practice of Music\" by Sir John Hawkins. Page 368 in the 1853 edition.Words have been edited to correspond with published versions of Skelton's poem and spelling has been modernised.There is a fully annotated version of Skelton's obscure poem in Norton's Anthology of Poetry, 4th edition." G,,2 z2 D,2 | %116
w: ale, with|
 E,3 D, C,2 | F,2 F,2 E,2 | D,4 D,2 |[M:4/2] C,16 |] %120
w: man- ner- ly|Mar- ge- ry|milk and|ale.|

